assets/images/icons/key-info-07.svg

<svg width="32" height="32" viewBox="0 0 32 32" fill="none" xmlns="http://www.w3.org/2000/svg">
<g clip-path="url(#clip0_211_3693)">
<path opacity="0.1" d="M0.223155 23.1618C-0.0589054 20.752 -0.098086 18.3874 0.248062 16.248C0.673696 13.6174 1.78493 10.6909 2.99894 8.07362C5.37163 2.95839 9.61911 1.16885 14.7912 0.362065C22.0007 -0.762522 31.9372 0.362091 32 9.08714C31.6383 12.2073 29.2517 20.8815 21.1951 21.5434C18.5313 21.7622 17.5348 24.4378 16.3612 27.5006C13.2729 35.5602 1.25575 31.9835 0.223155 23.1618Z" fill="#7FB51F"/>
<path d="M24.625 10.75H24.25V10C24.25 7.93225 22.5677 6.25 20.5 6.25H11.5C9.43225 6.25 7.75 7.93225 7.75 10V10.75H7.375C6.34075 10.75 5.5 11.5915 5.5 12.625V14.5C5.5 14.914 5.83525 15.25 6.25 15.25C6.66475 15.25 7 14.914 7 14.5V12.625C7 12.418 7.16875 12.25 7.375 12.25H7.75V19.75C7.75 20.971 8.3455 22.0472 9.2515 22.732C9.2515 22.738 9.25 22.744 9.25 22.75V24.25C9.25 25.0788 9.92125 25.75 10.75 25.75H11.5C12.3288 25.75 13 25.0788 13 24.25V23.5H19V24.25C19 25.0788 19.6713 25.75 20.5 25.75H21.25C22.0788 25.75 22.75 25.0788 22.75 24.25V22.75C22.75 22.744 22.7485 22.738 22.7485 22.732C23.6545 22.0465 24.25 20.971 24.25 19.75V12.25H24.625C24.8312 12.25 25 12.418 25 12.625V14.5C25 14.914 25.3353 15.25 25.75 15.25C26.1647 15.25 26.5 14.914 26.5 14.5V12.625C26.5 11.5915 25.6593 10.75 24.625 10.75ZM11.125 21.25C10.504 21.25 10 20.746 10 20.125C10 19.504 10.504 19 11.125 19C11.746 19 12.25 19.504 12.25 20.125C12.25 20.746 11.746 21.25 11.125 21.25ZM20.875 21.25C20.254 21.25 19.75 20.746 19.75 20.125C19.75 19.504 20.254 19 20.875 19C21.496 19 22 19.504 22 20.125C22 20.746 21.496 21.25 20.875 21.25ZM22.75 14.8563C22.75 15.589 22.2227 16.2272 21.4982 16.3368C19.7177 16.6045 17.881 16.7485 16 16.7485C14.119 16.7485 12.2822 16.6052 10.5017 16.3368C9.77725 16.2272 9.25 15.589 9.25 14.8563V10.75C9.25 9.92125 9.92125 9.25 10.75 9.25H21.25C22.0788 9.25 22.75 9.92125 22.75 10.75V14.8563Z" fill="#7FB51F"/>
</g>
<defs>
<clipPath id="clip0_211_3693">
<rect width="32" height="32" fill="white"/>
</clipPath>
</defs>
</svg>

<svg xmlns="http://www.w3.org/2000/svg" width="32" height="32" fill="none"><g fill="#7FB51F" clip-path="url(#a)"><path d="M.223 23.162c-.282-2.41-.321-4.775.025-6.914.426-2.63 1.537-5.557 2.75-8.174C5.373 2.958 9.62 1.169 14.792.362 22.001-.763 31.937.362 32 9.087c-.362 3.12-2.748 11.795-10.805 12.456-2.664.22-3.66 2.895-4.834 5.958-3.088 8.06-15.105 4.482-16.138-4.34" opacity=".1"/><path d="M24.625 10.75h-.375V10a3.754 3.754 0 0 0-3.75-3.75h-9A3.754 3.754 0 0 0 7.75 10v.75h-.375A1.877 1.877 0 0 0 5.5 12.625V14.5a.75.75 0 1 0 1.5 0v-1.875c0-.207.169-.375.375-.375h.375v7.5c0 1.221.595 2.297 1.502 2.982l-.002.018v1.5a1.5 1.5 0 0 0 1.5 1.5h.75a1.5 1.5 0 0 0 1.5-1.5v-.75h6v.75a1.5 1.5 0 0 0 1.5 1.5h.75a1.5 1.5 0 0 0 1.5-1.5v-1.5l-.002-.018a3.74 3.74 0 0 0 1.502-2.982v-7.5h.375c.206 0 .375.168.375.375V14.5a.75.75 0 1 0 1.5 0v-1.875c0-1.033-.84-1.875-1.875-1.875m-13.5 10.5a1.125 1.125 0 1 1 0-2.25 1.125 1.125 0 0 1 0 2.25m9.75 0a1.125 1.125 0 1 1 0-2.25 1.125 1.125 0 0 1 0 2.25m1.875-6.394a1.49 1.49 0 0 1-1.252 1.48 37 37 0 0 1-10.996 0 1.49 1.49 0 0 1-1.252-1.48V10.75a1.5 1.5 0 0 1 1.5-1.5h10.5a1.5 1.5 0 0 1 1.5 1.5z"/></g><defs><clipPath id="a"><path fill="#fff" d="M0 0h32v32H0z"/></clipPath></defs></svg>
